svg/color/tea.svg

<svg width="345" height="200" viewBox="0 0 345 200" fill="none" xmlns="http://www.w3.org/2000/svg">
<g clip-path="url(#clip0_5_38)">
<path d="M13.8163 113.567L63.9223 149.083C69.9647 153.529 78.6042 151.764 82.9329 145.536C87.2438 139.308 85.53 130.434 79.47 126.006L29.364 89.6083L28.4982 88.7262V86.9619L29.364 86.0797L79.47 49.6824C85.5124 45.2364 87.2438 36.362 82.9329 30.1517C80.3357 26.6055 76.0247 23.9238 71.6961 23.9238C69.0989 23.9238 66.5194 24.8059 63.9223 26.6055L13.8163 62.0854C5.17668 67.3959 0 76.2879 0 86.9442C0 99.3648 5.17668 108.257 13.8163 113.567Z" fill="#74FAD1"/>
<path d="M317.385 0.864502C308.746 3.82851 304.929 11.7149 306.82 20.5716C306.82 21.5596 331.767 110.286 280.919 170.448C275.159 177.346 276.113 187.209 282.844 193.137C285.707 196.101 289.558 197.071 293.41 197.071C297.261 197.071 302.049 195.095 304.912 191.143C367.279 117.202 338.498 15.6493 337.544 11.6972C334.682 2.82286 326.042 -2.09951 317.403 0.846859H317.385V0.864502Z" fill="#74FAD1"/>
<path d="M134.152 20.5716C137.014 11.6972 132.226 3.81087 123.587 0.864502C114.947 -2.08186 107.279 2.84051 104.399 11.7149C103.445 15.6493 74.6643 117.219 137.032 191.161C139.894 195.095 144.7 197.089 148.534 197.089C152.367 197.089 156.201 196.083 159.099 193.155C165.813 187.227 165.813 177.382 161.025 170.466C109.223 110.321 134.152 21.5949 134.152 20.5893V20.5716Z" fill="#74FAD1"/>
<path d="M249.276 168.472H190.742C182.102 168.472 175.389 175.37 175.389 184.245C175.389 193.119 182.102 200.018 190.742 200.018H250.23C258.869 200.018 265.583 193.119 265.583 184.245C264.629 175.37 257.915 168.472 249.276 168.472Z" fill="#74FAD1"/>
</g>
<defs>
<clipPath id="clip0_5_38">
<rect width="345" height="200" fill="white"/>
</clipPath>
</defs>
</svg>

<svg xmlns="http://www.w3.org/2000/svg" width="345" height="200" fill="none" viewBox="0 0 345 200"><g fill="#74FAD1" clip-path="url(#tea_svg-a)"><path d="m13.816 113.567 50.106 35.516c6.043 4.446 14.682 2.681 19.01-3.547 4.312-6.228 2.598-15.102-3.462-19.53L29.364 89.608l-.866-.882v-1.764l.866-.882L79.47 49.682c6.042-4.446 7.774-13.32 3.463-19.53-2.597-3.547-6.908-6.228-11.237-6.228-2.597 0-5.177.882-7.774 2.682l-50.106 35.48C5.176 67.395 0 76.287 0 86.943c0 12.42 5.177 21.313 13.816 26.623M317.385.865c-8.639 2.964-12.456 10.85-10.565 19.707 0 .988 24.947 89.714-25.901 149.876-5.76 6.898-4.806 16.761 1.925 22.689 2.863 2.964 6.714 3.934 10.566 3.934 3.851 0 8.639-1.976 11.502-5.928 62.367-73.941 33.586-175.494 32.632-179.446C334.682 2.823 326.042-2.1 317.403.847h-.018zM134.152 20.572c2.862-8.875-1.926-16.761-10.565-19.707-8.64-2.947-16.308 1.976-19.188 10.85-.954 3.934-29.735 105.504 32.633 179.446 2.862 3.934 7.668 5.928 11.502 5.928 3.833 0 7.667-1.006 10.565-3.934 6.714-5.928 6.714-15.773 1.926-22.689-51.802-60.145-26.873-148.871-26.873-149.877zm115.124 147.9h-58.534c-8.64 0-15.353 6.898-15.353 15.773s6.713 15.773 15.353 15.773h59.488c8.639 0 15.353-6.899 15.353-15.773-.954-8.875-7.668-15.773-16.307-15.773"/></g><defs><clipPath id="tea_svg-a"><path fill="#fff" d="M0 0h345v200H0z"/></clipPath></defs></svg>
